X: 3885
T: Black Sporran, The
R: jig
M: 6/8
K: Amajor
e|:cde A2 a|faf ecA|cdeA2 a|fdf f2e|
cde A2a|faf ecA|dfd cac|Bce f2e:|
|:a2 e fec|eae fec|a2 e fec|fdf f2e|
[1a2e fec|eae fec|BGB Bce|fdf f2 e:|
[2efg aAa|fAf edc|dfd cac|Bce f2e||

